X: 1
T: Cuddle The Dragon
M: 6/8
L: 1/8
R: jig
K: Fmaj
c3 ~c2d | c2B A2F | G2F E2A, | B,3 z3 |
G3 ~G2A | B2d B2A | G2E C2A, | B,2C E2G |
c3 ~c2d | c2B A2F | G2F E2A, | B,3 z3 |
G3 ~G2A | B2d c2B | A2F G2E  | ~F3 z3 ||
AcG F2E | FAE DFA, | DGA BAG | GED CEG |
AcG F2E | FAE DFA, | B,GC DFA, |1 B,FE F2G :|2 B,FE F2z||
